!!!!SEGMENT: pl-gd--ee-2628--005-016_stabile-annibale--il-primo-libro-de-madrigali-a-cinque-voci-for-se-ei-non-lasciera.krn
!!!cenid: 15xx:1061
!!!COM: Stabile, Annibale
!!!COM-rismid: pe30009662
!!!CDT: ~1535-1595/04
!!!CNT: Italian
!!!GTL: Il primo libro de madrigali a cinque voci
!!!OTL: For se ei non lascierà
!!!OMV: 016
!!!PDT: 1586
!!!AGN:
!!!SMS-siglum: PL-GD
!!!SMS-shelfmark: Ee 2628
!!!SMS-variant:
!!!SMS-altvar:
!!!SMS-shelfwork: 005-016 G
!!!NIFC-rismid: 990060531
!!!URL-scan: https://repozytorium.nifc.pl/islandora/object/pl-gd%3A66139/datastream/PDF/view
!!!ONB-nifc: UWAGA: Canto: s. 78-89, Tenore: s. 233-245, Basso: s. 390-401, Quinto: s. 712-723. Dla głosu Alto proszę skorzystać z https://pbc.gda.pl/dlibra/doccontent?id=79410, str. 25-48. Uwaga: utwory podzielone wg spisu treści dostępnych na końcu ksiąg – proszę sprawdzać sąsiednie tytuły. Głos Quinto proszę umieszczać wg ambitusu (może się różnić w zależności od utworu).
!!!AIN: 1 alto 1 bass 1 soprn 2 tenor
!!!key: a:aeo
**kern	**text	**kern	**text	**kern	**text	**kern	**text	**kern	**text
*part5	*part5	*part4	*part4	*part3	*part3	*part2	*part2	*part1	*part1
*staff5	*staff5	*staff4	*staff4	*staff3	*staff3	*staff2	*staff2	*staff1	*staff1
*I"BASSO	*	*I"TENORE	*	*I"QVINTO	*	*I"ALTO	*	*I"CANTO	*
*I'B	*	*I'T	*	*I'V 5	*	*I'A	*	*I'S	*
*Ibass	*	*Itenor	*	*Itenor	*	*Ialto	*	*Isoprn	*
*ICvox	*	*ICvox	*	*ICvox	*	*ICvox	*	*ICvox	*
*clefF4	*	*clefC4	*	*clefC4	*	*clefC3	*	*clefC1	*
*k[]	*	*k[]	*	*k[]	*	*k[]	*	*k[]	*
*a:aeo	*	*a:aeo	*	*a:aeo	*	*a:aeo	*	*a:aeo	*
*M2/1	*	*M2/1	*	*M2/1	*	*M2/1	*	*M2/1	*
*met(C)	*	*met(C)	*	*met(C)	*	*met(C)	*	*met(C)	*
=1-	=1-	=1-	=1-	=1-	=1-	=1-	=1-	=1-	=1-
!LO:TX:a:i:t=Seconda parte.	!	!LO:TX:a:i:t=Seconda parte.	!	!LO:TX:a:i:t=Seconda parte.	!	!LO:TX:a:i:t=Seconda parte.	!	!LO:TX:a:i:t=Seconda parte.	!
00r	.	0r	.	1r	.	2r	.	2a\	FOr-
.	.	.	.	.	.	2e\	FOr-	4cc\	ſe ei
.	.	.	.	.	.	.	.	4b\	non
.	.	.	.	2r	.	4f\	ſe ei	4a\	la-
.	.	.	.	.	.	4e\	non	4g/	-ſcie-
.	.	.	.	2D/	FOr-	4d\	la-	4f/	-ra
.	.	.	.	.	.	4d\	-ſcie-	4f/	non
=2-	=2-	=2-	=2-	=2-	=2-	=2-	=2-	=2-	=2-
.	.	2r	.	4A/	ſe ei	4c/	-ra	4.e/	la-
.	.	.	.	4G/	non	4B/	che	.	.
.	.	.	.	.	.	.	.	8e/	-ſcie-
.	.	4r	.	4.F/	la-	4c/	mor-	2.a\	-ra
.	.	4A/	FOr-	.	.	4d\	-te	.	.
.	.	.	.	8F/	-ſcie-	.	.	.	.
.	.	4c\	ſe ei	4E/	-ra	2e\	ſcoc-	.	.
.	.	4B\	non	4E/	che	.	.	4g#X/	che
.	.	4A/	la-	4F/	mor-	4c/	-chi	4a\	mor-
.	.	4G/	-ſcie-	4E/	-te	4c/	non	4cc\	-te
!	!	!	!	!	!	!LO:SIC:v:t=custos f	!	!LO:SIC:v:t=custos dd	!
!	!	!	!	!	!	!LO:LB:g=original	!	!LO:LB:g=original	!
=3-	=3-	=3-	=3-	=3-	=3-	=3-	=3-	=3-	=3-
4r	.	8F/	-ra	2D/	ſcoc-	4.f\	la-	2dd\	ſcoc-
.	.	8G/	.	.	.	.	.	.	.
4A\	FOr-	8A\	.	.	.	.	.	.	.
.	.	8F/	.	.	.	8f\	-ſcie-	.	.
!	!	!	!	!LO:SIC:v:t=custos C	!	!	!	!	!
!	!	!	!	!LO:LB:g=original	!	!	!	!	!
4c\	ſe ei	2G/	.	2C/	-chi	4e\	-ra	2gny\	-chi
4B\	non	.	.	.	.	4g\	che	.	.
2A\	la-	2c\	che	2r	.	4g\	mor-	4r	.
.	.	.	.	.	.	4f\	-te	4cc\	For-
!	!	!LO:SIC:v:t=custos d	!	!	!	!	!	!	!
!	!	!LO:LB:g=original	!	!	!	!	!	!	!
2G\	-ſcie-	4d\	mor-	4r	.	2g\	ſcoc-	4cc\	ſe ei
.	.	4e\	-te	4G/	che	.	.	4b\	non
=4-	=4-	=4-	=4-	=4-	=4-	=4-	=4-	=4-	=4-
2.F\	-ra	2f\	ſcoc-	2.A/	mor-	2c/	-chi	4.a\	la-
.	.	.	.	.	.	.	.	8a\	-ſcie-
.	.	2c\	-chi	.	.	4r	.	4a\	-ra
4E\	che	.	.	4e\	-te	4c/	che	4g/	che
4D/	mor-	1r	.	1A	ſcoc-	4d\	mor-	4f/	mor-
4C#X/	-te	.	.	.	.	4e\	-te	4e/	-te
!LO:SIC:v:t=custos D	!	!	!	!	!	!	!	!	!
!LO:LB:g=original	!	!	!	!	!	!	!	!	!
2D/	ſcoc-	.	.	.	.	2f\	ſcoc-	2d/	ſcoc-
=5-	=5-	=5-	=5-	=5-	=5-	=5-	=5-	=5-	=5-
2AA/	-chi	2r	.	1A	-chi	2e\	-chi	2c#X/	-chi
!	!	!	!	!	!	!LO:SIC:v:t=custos c#	!	!LO:SIC:v:t=custos e	!
!	!	!	!	!	!	!LO:LB:g=original	!	!LO:LB:g=original	!
2AA/	ef-	2A/	eſ-	.	.	2c#X/	eſ-	2e/	eſ-
2.D/	-fen-	2.A/	-ſen-	2r	.	2.d\	-ſen-	2.f#X/	-ſen-
.	.	.	.	4r	.	.	.	.	.
4D/	-do	4A/	-do	2D/	eſ-	4d\	-do	4f#/	-do
=6-	=6-	=6-	=6-	=6-	=6-	=6-	=6-	=6-	=6-
2D/	di	2A/	di	.	.	2d\	di	2f#/	di
.	.	.	.	2A/	-ſen-	.	.	.	.
2GG/	pie-	2B-X\	pie-	.	.	2d\	pie-	2g/	pie-
.	.	.	.	4G/	-do	.	.	.	.
2D/	-tà	2A/	-tà	4F/	di	2d\	-tà	4a\	-tà
.	.	.	.	4F/	pie-	.	.	2a\	pie-
!	!	!	!	!LO:SIC:v:t=custos E	!	!	!	!	!
!	!	!	!	!LO:LB:g=original	!	!	!	!	!
2AA/	pie-	2A/	pie-	4E/	-tà	2e\	pie-	.	.
.	.	.	.	4C/	pie-	.	.	2cc\	-to-
!	!	!LO:SIC:v:t=custos G	!	!	!	!	!	!	!
!	!	!LO:LB:g=original	!	!	!	!	!	!	!
=7-	=7-	=7-	=7-	=7-	=7-	=7-	=7-	=7-	=7-
4Cny/	-to-	4.G/	-to-	4C/	-to-	4e\	-to-	.	.
4GG/	-ſo	.	.	4D/	-ſo	4d\	-ſo	4b-X\	-ſo
.	.	8F/	-ſo	.	.	.	.	.	.
2AA/	ni-	2E/	ni-	2A/	ni-	2c#X/	ni-	2a\	ni-
!LO:SIC:v:t=custos D	!	!	!	!	!	!	!	!	!
!LO:LB:g=original	!	!	!	!	!	!	!	!	!
1D	-do	2D/	-do	1A	-do	2d\	-do	1f#X	-do
.	.	4r	.	.	.	4r	.	.	.
.	.	4D/	L'em-	.	.	4d\	L'em-	.	.
=8-	=8-	=8-	=8-	=8-	=8-	=8-	=8-	=8-	=8-
1r	.	4E/	-pia	1r	.	4cny/	-pia	4r	.
.	.	4F/	ſa-	.	.	4A/	ſa-	4a\	L'em-
.	.	4G/	-et-	.	.	4B/	-et-	4g/	-pia
.	.	4A/	-ta	.	.	4c#X/	-ta	4e/	ſa-
2r	.	8D/	fin	2r	.	2d\	fin	2fny/	-et-
.	.	8E/	.	.	.	.	.	.	.
.	.	8F/	.	.	.	.	.	.	.
.	.	8G/	.	.	.	.	.	.	.
2AA/	L'em-	4A/	.	4r	.	2cny/	di	2e/	-ta
.	.	4A/	di	4A/	L'em-	.	.	.	.
!	!	!	!	!	!	!LO:SIC:v:t=custos B	!	!	!
!	!	!	!	!	!	!LO:LB:g=original	!	!	!
=9-	=9-	=9-	=9-	=9-	=9-	=9-	=9-	=9-	=9-
4BB/	-pia	4d\	tut-	4G/	-pia	4B/	tut-	1r	.
4C/	ſa-	4c\	ti i	4E/	ſa-	4e\	ti i	.	.
2D/	-et-	4.A/	ma-	2F/	-et-	2d\	ma-	.	.
.	.	8Bny\	.	.	.	.	.	.	.
!	!	!LO:SIC:v:t=custos c	!	!	!	!	!	!	!
!	!	!LO:LB:g=original	!	!	!	!	!	!	!
2AA/	-ta	4c\	.	4E/	-ta	2e\	-li	4r	.
.	.	4A/	-li	2A/	fin	.	.	2cc\	fi
4.E\	fin	2r	.	.	.	2e\	L'em-	.	.
.	.	.	.	4G/	di	.	.	4bny\	di
8E\	di	.	.	.	.	.	.	.	.
!	!	!	!	!	!	!	!	!LO:SIC:v:t=custos a	!
!	!	!	!	!	!	!	!	!LO:LB:g=original	!
=10-	=10-	=10-	=10-	=10-	=10-	=10-	=10-	=10-	=10-
4F\	tut-	1r	.	4F/	tut-	4c/	-pia	4a\	tut-
4G\	ti i	.	.	4E/	ti i	4c/	ſa-	4g/	ti i
4.A\	ma-	.	.	2D/	ma-	2d\	-et-	2f/	ma-
8B\	.	.	.	.	.	.	.	.	.
2c\	.	4r	.	2C/	-li	2G/	-ta	4.e/	-li
.	.	2c\	fin	.	.	.	.	.	.
.	.	.	.	.	.	.	.	8f/	.
2G\	-li	.	.	2r	.	4.d\	fin	2g\	.
.	.	4B\	di	.	.	.	.	.	.
.	.	.	.	.	.	8d\	di	.	.
!	!	!	!	!LO:SIC:v:t=custos e	!	!	!	!	!
!	!	!	!	!LO:LB:g=original	!	!	!	!	!
=11-	=11-	=11-	=11-	=11-	=11-	=11-	=11-	=11-	=11-
0r	.	4A/	tut-	4r	.	4c/	tut-	2r	.
.	.	4G/	ti i	4.e\	fin	4B/	ti i	.	.
.	.	2F/	ma-	.	.	2A/	ma-	4.a\	fin
.	.	.	.	8e\	di	.	.	.	.
.	.	.	.	2d\	tut-	.	.	.	.
.	.	.	.	.	.	.	.	8a\	di
.	.	1E	-li	.	.	0e	-li	4g#X/	tut-
.	.	.	.	4c\	ti i	.	.	4a\	ti i
.	.	.	.	2B\	ma-	.	.	2g#X/	ma-
=12-	=12-	=12-	=12-	=12-	=12-	=12-	=12-	=12-	=12-
2r	.	2r	.	2A\	-li	.	.	2a\	-li
2A\	Co-	4r	.	2c#X\	Co-	.	.	2e/	co-
.	.	4A/	co-	.	.	.	.	.	.
2A\	-ſi	2D/	-ſi	2d\	-ſi	1r	.	2f/	-ſi
!LO:SIC:v:t=custos G	!	!	!	!	!	!	!	!	!
!LO:LB:g=original	!	!	!	!	!	!	!	!	!
2G\	pian-	2E/	pian-	2B\	pian-	.	.	1e/	pian-
=13-	=13-	=13-	=13-	=13-	=13-	=13-	=13-	=13-	=13-
1F	-gen-	1.A	-gen-	2cny\	-gen-	0r	.	.	.
.	.	.	.	4B\	.	.	.	2d/	-gen-
.	.	.	.	4A\	.	.	.	.	.
1E	-do	.	.	2c\	.	.	.	2e/	-do
.	.	2G#X/	-do	2B\	-do	.	.	2.ee\	poi
=14-	=14-	=14-	=14-	=14-	=14-	=14-	=14-	=14-	=14-
0r	.	2.A/	poi	4.c\	poi	2.a\	poi	.	.
.	.	.	.	.	.	.	.	4a\	di-
.	.	.	.	8d\	.	.	.	.	.
!	!	!	!	!	!	!	!	!LO:SIC:v:t=custos cc	!
!	!	!	!	!	!	!	!	!LO:LB:g=original	!
.	.	.	.	4e\	.	.	.	4cc\	-cea
.	.	4D/	di-	4f\	di-	4a\	di-	2dd\	Cu-
.	.	2.F/	-cea	4f\	-cea	2.a\	-cea	.	.
.	.	.	.	4e\	Cu-	.	.	4.cc\	-pi-
!	!	!	!	!LO:SIC:v:t=custos d	!	!	!	!	!
!	!	!	!	!LO:LB:g=original	!	!	!	!	!
.	.	.	.	2d\	-pi-	.	.	.	.
.	.	.	.	.	.	.	.	8b\	.
.	.	4Gny/	Cu-	.	.	4g\	Cu-	4b\	.
!	!	!LO:SIC:v:t=custos A	!	!	!	!LO:SIC:v:t=custos e	!	!	!
!	!	!LO:LB:g=original	!	!	!	!LO:LB:g=original	!	!	!
=15-	=15-	=15-	=15-	=15-	=15-	=15-	=15-	=15-	=15-
4r	.	1A	-pi-	4c\	-do	0e	-pi-	4cc\	-do
2A\	poi	.	.	2c\	poi	.	.	2cc\	poi
4AA/	di-	.	.	4c\	di-	.	.	4cc\	di-
4C/	-cea	1E	-do	4G/	-cea	.	.	4cc\	-cea
4GG/	Cu-	.	.	4B\	Cu-	.	.	4b\	Cu-
2AA/	-pi-	.	.	2c\	-pi-	.	.	2a\	-pi-
=16-	=16-	=16-	=16-	=16-	=16-	=16-	=16-	=16-	=16-
1E	-do	2r	.	2B\	-do	2e\	-do	2g#X/	-do
.	.	2E/	(et)	2G#X/	(et)	2e\	(et)	2b\	(et)
1r	.	4.A/	po-	4A/	po-	4e\	po-	4.cc\	po-
.	.	.	.	4c\	-ſcia	4f#X\	-ſcia	.	.
.	.	8A/	-ſcia	.	.	.	.	8cc\	-ſcia
.	.	4G/	vi-	4d\	vi-	4.g\	vi-	4b\	vi-
.	.	4G/	-di	4e\	-di	.	.	4b\	-di
.	.	.	.	.	.	8g\	-di	.	.
=17-	=17-	=17-	=17-	=17-	=17-	=17-	=17-	=17-	=17-
0r	.	4F/	lui	2f\	lui	4c/	lui	2a\	lui
.	.	4D/	chiu-	.	.	2fny\	chiu-	.	.
.	.	8F/	ſi i	2c\	chiu-	.	.	2a\	chiu-
.	.	8G/	.	.	.	.	.	.	.
.	.	8A\	.	.	.	2e\	ſi i	.	.
.	.	8B\	.	.	.	.	.	.	.
!	!	!	!	!	!	!	!	!LO:SIC:v:t=custos a	!
!	!	!	!	!	!	!	!	!LO:LB:g=original	!
.	.	4c\	.	4A/	ſi i	.	.	4a\	ſi i
.	.	4d\	begl'-	4f\	begl'-	4a\	begl'-	4a\	begl'-
.	.	2B\	-oc-	2d\	-oc-	2g\	-oc-	2dd\	-oc-
=18-	=18-	=18-	=18-	=18-	=18-	=18-	=18-	=18-	=18-
4r	.	1A	-chi	1e	-chi	1a	-chi	4cc\	-chi
4.AA/	Spe-	.	.	.	.	.	.	4.cny/	Spe-
8AA/	-gner	.	.	.	.	.	.	8c/	-gner
4A\	la	.	.	.	.	.	.	4c/	la
1F	fa-	4r	.	1r	.	1r	.	1d	fa-
.	.	4.D/	Spe-	.	.	.	.	.	.
.	.	8D/	-gner	.	.	.	.	.	.
.	.	4A/	la	.	.	.	.	.	.
!	!	!LO:SIC:v:t=custos G#	!	!LO:SIC:v:t=custos B	!	!	!	!	!
!	!	!LO:LB:g=original	!	!LO:LB:g=original	!	!	!	!	!
=19-	=19-	=19-	=19-	=19-	=19-	=19-	=19-	=19-	=19-
1E	-ce	4.G#X/	fa-	4r	.	1r	.	1e	-ce
.	.	.	.	4.B\	Spe-	.	.	.	.
.	.	8F#X/	.	.	.	.	.	.	.
.	.	2G#X/	.	.	.	.	.	.	.
.	.	.	.	8B\	-gner	.	.	.	.
.	.	.	.	4e\	la	.	.	.	.
1r	.	1A	-ce	4.c#X\	fa-	4r	.	1r	.
.	.	.	.	.	.	4.e\	Spe-	.	.
.	.	.	.	8B\	.	.	.	.	.
.	.	.	.	2c#X\	.	.	.	.	.
.	.	.	.	.	.	8e\	-gner	.	.
.	.	.	.	.	.	4a\	la	.	.
=20-	=20-	=20-	=20-	=20-	=20-	=20-	=20-	=20-	=20-
4r	.	2r	.	4d\	-ce	1f	fa-	1r	.
*	*ij	*	*	*	*ij	*	*	*	*
4.D/	Spe-	.	.	4.d\	Spe-	.	.	.	.
.	.	4r	.	.	.	.	.	.	.
8D\	-gner	.	.	8d\	-gner	.	.	.	.
*	*	*	*ij	*	*	*	*	*	*
4D/	la	4.A/	Spe-	4d\	la	.	.	.	.
!LO:SIC:v:t=custos AA	!	!	!	!	!	!	!	!	!
!LO:LB:g=original	!	!	!	!	!	!	!	!	!
2AA/	fa-	.	.	2cny\	fa-	1e	-ce	4r	.
.	.	8A/	-gner	.	.	.	.	.	.
.	.	4A/	la	.	.	.	.	4.e/	Spe-
2E\	-ce	2G#X/	fa-	2B\	-ce	.	.	.	.
*	*Xij	*	*	*	*Xij	*	*	*	*
.	.	.	.	.	.	.	.	8e/	-gner
.	.	.	.	.	.	.	.	4ee\	la
!	!	!	!	!	!	!LO:SIC:v:t=custos e	!	!	!
!	!	!	!	!	!	!LO:LB:g=original	!	!	!
=21-	=21-	=21-	=21-	=21-	=21-	=21-	=21-	=21-	=21-
4r	.	2A/	-ce	4r	.	4r	.	2.cc\	fa-
*	*	*	*Xij	*	*	*	*ij	*	*
4.AA/	Spe-	.	.	4.A/	Spe-	4.e\	Spe-	.	.
.	.	4r	.	.	.	.	.	.	.
8AA/	-gner	.	.	8A/	-gner	8e\	-gner	.	.
4E\	la	4.E/	Spe-	4G#X/	la	4e\	la	4b\	-ce
2C#X/	fa-	.	.	2.A/	fa-	2e\	fa-	1r	.
.	.	8E/	-gner	.	.	.	.	.	.
.	.	4A/	la	.	.	.	.	.	.
2D/	-ce	2F#X/	fa-	.	.	1d\	ce (et)	.	.
*	*	*	*	*	*	*	*Xij	*	*
.	.	.	.	4A/	ce (et)	.	.	.	.
!	!	!	!	!LO:SIC:v:t=custos B	!	!	!	!	!
!	!	!	!	!LO:LB:g=original	!	!	!	!	!
=22-	=22-	=22-	=22-	=22-	=22-	=22-	=22-	=22-	=22-
2r	.	2Gny/	ce (et)	4.B\	rom-	.	.	2r	.
.	.	.	.	8c\	-per	.	.	.	.
4r	.	1G	rom-	4d\	l'ar-	1g	rom-	2b\	(et)
4GG/	(et)	.	.	4d\	co ei	.	.	.	.
8Cny/	rom-	.	.	2e\	ſtra-	.	.	2cc\	rom-
8D/	.	.	.	.	.	.	.	.	.
8E\	.	.	.	.	.	.	.	.	.
8F\	.	.	.	.	.	.	.	.	.
4G\	.	2G/	-per	1d\	-li	2g\	-per	2b\	-per
4GG/	-per	.	.	.	.	.	.	.	.
!	!	!LO:SIC:v:t=custos A	!	!	!	!	!	!LO:SIC:v:t=custos a	!
!	!	!LO:LB:g=original	!	!	!	!	!	!LO:LB:g=original	!
=23-	=23-	=23-	=23-	=23-	=23-	=23-	=23-	=23-	=23-
4r	.	4r	.	.	.	4r	.	4r	.
2D/	l'ar-	2A/	l'ar-	.	.	2f\	l'ar-	2a\	l'ar-
.	.	.	.	2r	.	.	.	.	.
4AA/	co ei	4c\	co ei	.	.	4e\	co ei	4a\	co ei
2E\	ſtra-	1B	ſtra-	4r	.	1e	ſtra-	4.g#X/	ſtra-
.	.	.	.	4.B\	Spe-	.	.	.	.
.	.	.	.	.	.	.	.	8f#X/	.
!LO:SIC:v:t=custos E	!	!	!	!	!	!	!	!	!
!LO:LB:g=original	!	!	!	!	!	!	!	!	!
2E\	-li	.	.	.	.	.	.	2g#X/	.
.	.	.	.	8B\	-gner	.	.	.	.
.	.	.	.	4e\	la	.	.	.	.
=24-	=24-	=24-	=24-	=24-	=24-	=24-	=24-	=24-	=24-
4r	.	1A	-li	1c	fa-	2e\	-li	0a	-li
4.AA/	Spe-	.	.	.	.	.	.	.	.
.	.	.	.	.	.	2.e\	Spe-	.	.
8AA/	-gner	.	.	.	.	.	.	.	.
4A\	la	.	.	.	.	.	.	.	.
1F	fa-	4r	.	1A	-ce	.	.	.	.
.	.	4.D/	Spe-	.	.	4d\	-gner	.	.
.	.	.	.	.	.	2d\	la	.	.
.	.	8D/	-gner	.	.	.	.	.	.
.	.	4A/	la	.	.	.	.	.	.
=25-	=25-	=25-	=25-	=25-	=25-	=25-	=25-	=25-	=25-
1E	-ce	4.G#X/	fa-	1r	.	1e	fa-	4r	.
.	.	.	.	.	.	.	.	4.b\	Spe-
.	.	8F#X/	.	.	.	.	.	.	.
.	.	2G#X/	.	.	.	.	.	.	.
.	.	.	.	.	.	.	.	8b\	-gner
.	.	.	.	.	.	.	.	4ee\	la
4r	.	2A/	-ce	2r	.	2e\	-ce	2.cc\	fa-
*	*ij	*	*	*	*	*	*	*	*
4.AA/	Spe-	.	.	.	.	.	.	.	.
*	*	*	*	*	*	*	*ij	*	*
.	.	2r	.	4r	.	2.e\	Spe-	.	.
8AA/	-gner	.	.	.	.	.	.	.	.
4E\	la	.	.	4.E/	Spe-	.	.	4b\	-ce
=26-	=26-	=26-	=26-	=26-	=26-	=26-	=26-	=26-	=26-
2C#X/	fa-	4r	.	.	.	.	.	1r	.
.	.	.	.	8E/	-gner	.	.	.	.
.	.	4.A/	Spe-	4A/	la	4e\	-gner	.	.
!	!	!	!	!	!	!LO:SIC:v:t=custos d	!	!	!
!	!	!	!	!	!	!LO:LB:g=original	!	!	!
2D/	-ce	.	.	2F#X/	fa-	2d\	la	.	.
*	*Xij	*	*	*	*	*	*	*	*
.	.	8A/	-gner	.	.	.	.	.	.
.	.	4d\	la	.	.	.	.	.	.
2r	.	4.B\	fa-	2Gny/	ce et	2d\	fa-	2r	.
.	.	8c\	.	.	.	.	.	.	.
!	!	!LO:SIC:v:t=custos d	!	!LO:SIC:v:t=custos G	!	!	!	!	!
!	!	!LO:LB:g=original	!	!LO:LB:g=original	!	!	!	!	!
2GG/	(et)	4d\	.	1G/	rom-	2g\	ce (et)	2b\	(et)
*	*	*	*	*	*	*	*Xij	*	*
.	.	4d\	-c'et	.	.	.	.	.	.
=27-	=27-	=27-	=27-	=27-	=27-	=27-	=27-	=27-	=27-
2.Cny/	rom-	2.e\	rom-	.	.	2g\	rom-	2.cc\	rom-
.	.	.	.	2G/	-per	2g\	-per	.	.
4GG/	-per	4d\	-per	.	.	.	.	4b\	-per
4r	.	4r	.	4r	.	4r	.	4r	.
2D/	l'ar-	2d\	l'ar-	2A/	l'ar-	2f\	l'ar-	2a\	l'ar-
4AA/	co ei	4c\	co ei	4A/	co ei	4e\	co ei	4a\	co ei
!	!	!	!	!	!	!	!	!LO:SIC:v:t=custos g#	!
!	!	!	!	!	!	!	!	!LO:LB:g=original	!
=28-	=28-	=28-	=28-	=28-	=28-	=28-	=28-	=28-	=28-
1E	ſtra-	1B	ſtra-	1B	ſtra-	1e	ſtra-	4.g#X/	ſtra-
.	.	.	.	.	.	.	.	8f#X/	.
.	.	.	.	.	.	.	.	2g#X/	.
0.AAl	-li.	0.Al	-li.	0.c#Xl	-li.	0.el	-li.	0.al	-li.
=29-	=29-	=29-	=29-	=29-	=29-	=29-	=29-	=29-	=29-
.	.	.	.	.	.	.	.	.	.
=||	=||	=||	=||	=||	=||	=||	=||	=||	=||
*-	*-	*-	*-	*-	*-	*-	*-	*-	*-
!!!RDF**kern: l = terminal long
!!!system-decoration: [(s1,s2,s3,s4,s5)]
!!!ENC: Mateusz Solarz
!!!END: 2022-07-08
!!!ENC: Urszula Świątek
!!!END: 2022-07-29
